X:1
T:Title
%%score { ( 1 3 5 ) | ( 2 4 ) }
L:1/8
M:4/4
K:G
V:1 treble nm="Grand Piano"
V:3 treble 
V:5 treble 
V:2 bass 
V:4 bass 
V:1
 z4 z2[Q:1/4=110] D2 | [B,DG]2 [B,DG]2 [DFA]2 [DFA]2 | [DGB]6 [EGc]2 | %3
 [DGB]2 [DGB]2 [CFA]2 [CDA]2 | [B,DG]6 [DFA]2 | [DGB]2 [DFA]2 [DGB]2 [G^c]2 | %6
 [Fd]2 [GB]2 [FA]2 [DGB]2 | F4 A,2 z2 | [F,D]6 D2 | G6 z2 | [DA]6 z2 | B6 z2 | [DFA]6 [DFA]2 | %13
 [DGB]6 [DGc]2 | [Gd]6 z2 | B4 F2 z2 |[M:3/4] [B,G]6 |] %17
V:2
 z4 z2 D,2 | G,2 G,2 D,2 D,2 | G,6 C,2 | D,2 D,2 D,2 D,2 | G,6 D,2 | G,2 D,2 G,2 [E,A,]2 | %6
 [D,A,]2 [D,D]2 [D,D]2 G,2 | A,2 A,2 z2 G,2 | D,6 C2 | [B,D]2 A,2 G,2 B,,2 | %10
 [D,F,]2 E,2 F,2 [D,F,D]2 | [G,D]2 [D,B,]2 G,2 B,,2 | D,6 D,2 | G,2 D,2 G,2 A,2 | %14
 B,2 A,2 G,2 [C,C]2 | z2 D2 z2 D2 |[M:3/4] G,,6 |] %17
V:3
 x8 | x8 | x8 | x8 | x8 | x8 | x8 | D2 z2 [^CE]4 | x8 | z2 C2 B,2 [G,DG]2 | z2 G,2 A,2 A2 | %11
 z2 G4 z2 | x8 | x8 | D2 C2 B,2 [Ge]2 | G2 z2 [CA]4 |[M:3/4] x6 |] %17
V:4
 x8 | x8 | x8 | x8 | x8 | x8 | x8 | z4 A,,4 | x8 | x8 | x8 | x8 | x8 | x8 | x8 | [D,G,]4 D,4 | %16
[M:3/4] x6 |] %17
V:5
 x8 | x8 | x8 | x8 | x8 | x8 | x8 | x8 | x8 | x8 | x8 | z4 D2 [DGd]2 | x8 | x8 | x8 | x8 | %16
[M:3/4] x6 |] %17

